X: 37016
T: Siena, The
R: waltz
M: 3/4
K: Dmajor
FG|A2 D2 de|B3 A GF|EF GA Bc|A2 FE FG|A2 D2 de|B3 A GF|BA GE DC|D4 FG||
A2 D2 de|B3 A GF|EF GA Bc|A2 d2 e2|B3 A GF|A3 F de|cA GE DC|D4 fe||
f2 d2 ed|ec A2 dc|dA FD FA|G4 fe|f3 d ga|ec Ac de|fg a3 A|B4 AG|
A2 E2 AG|A2 D2 AG|A2 DE FA|B2 BA GF|EF GA Bd|e2 A2 GF|EF GA Bc|A3c de|
f2d2 ed|e2A2 dc|dA FD FA|G4 fe|f3 d ga|ec (3ABc de|fg a3 A|Bz A3 G|
A2 E2 AG|A2 D2 AG|A2 D3d|B3A GF|EF GA Bd|e2 A2GF|EF GA ED|E4||

